X: 100407
T: James Gannon's Barn Dance
T: Merry Priest
M: 4/4
L: 1/8
R: hornpipe
Z: B.Black
K: G
GA |: B2 AB e2 dB | d2 cA E3 G | AGAB cAFA |\
GABG D2 B,2 |
B2 AB e2 dB | d2 cA E3 G | AGAB cAFA |1\
G2 GF G2 :|2 G2 g2 g2 f2 ||
edef gfga | b2 d2 d3 B | cBcd edef |\
g2 B2 B2 gf | 
edef gfga | b2 d2 d3 B | cBAB cAFA |1\
G2 g2 g2 f2 :|2 G2 GF G2 ||
